X:215
T:We’ll gang nae muir to yon Town. RH.215
R:Reel
S:Rev.R.Harrison’s MS,c1815,Cumbria
O:England
A:Temple Sowerby,Cumbria
Z:vmp.Simon Wilson. Review PJH, 2008.
M:2/4
L:1/8
Q:1/4=160
K:G
B|Gggd|B2Gd|BdGd|BAAB|\
Gggd|B2Gd|BdAc|BGG:|!
|:d|BGdG|eGdG|BGdG|cAAd|\
BGdG|eGdG|BdAc|BGG:|!
|:d|g>agd|B2Gd|BGdG|cAA2|\
(b/a/g/f/) gd|B2Gd|BdAc|B2G:|

